!! J.S. Bach; Fugue from `Prelude & Fugue in E- major', "St. Anne",
!! BWV 552 for organ.
!! Encoded from Novello Edition, Book 6, pp.36-41; in five voices.
!! NOTE: This file has undergone double-entry error detection & correction.
!! Performed duration: 6:02, tempo: quarter-note equals MM 155.1
!! (Peter Hurford, organist "Famous Organ Works" Decca No. 417 711-2)
!! Irregular meter.
**kern	**kern	**kern	**kern	**kern
*M4/2	*M4/2	*M4/2	*M4/2	*M4/2
=1	=1	=1	=1	=1
0r	0r	1B-	0r	0r
.	.	2G	.	.
.	.	2c	.	.
=2	=2	=2	=2	=2
0r	0r	2B-	0r	0r
.	.	1e-	.	.
.	.	2d	.	.
=3	=3	=3	=3	=3
0r	1E-	4e-	0r	0r
.	.	4f	.	.
.	.	4g	.	.
.	.	4a-	.	.
.	2D	4b-	.	.
.	.	4B-	.	.
.	2G	4e-	.	.
.	.	4f	.	.
=4	=4	=4	=4	=4
0r	2E-	4g	0r	0r
.	.	4f	.	.
.	1B-	4e-	.	.
.	.	4d	.	.
.	.	4e-	.	.
.	.	4c	.	.
.	2An	4f	.	.
.	.	4e-	.	.
=5	=5	=5	=5	=5
0r	4B-	2d	0r	0r
.	4c	.	.	.
.	4d	1b-	.	.
.	4e-	.	.	.
.	4f	.	.	.
.	4F	.	.	.
.	4c	[2a-	.	.
.	4d	.	.	.
=6	=6	=6	=6	=6
0r	4e-	2a-]	0r	0r
.	4E-	.	.	.
.	4F	[2g	.	.
.	4G	.	.	.
.	[1A-	4g]	.	.
.	.	4c	.	.
.	.	4f	.	.
.	.	4e-	.	.
=7	=7	=7	=7	=7
0r	4A-]	4d	0r	1b-
.	4G	4B-	.	.
.	4A-	4c	.	.
.	4B-	4d	.	.
.	4c	2e-	.	2g
.	4B-	.	.	.
.	4c	2a-	.	2cc
.	4d	.	.	.
=8	=8	=8	=8	=8
0r	4e-	1g	0r	2b-
.	4d	.	.	.
.	4c	.	.	1ee-
.	4B-	.	.	.
.	4A-	1f	.	.
.	4F	.	.	.
.	4B-	.	.	2dd
.	4A-	.	.	.
=9	=9	=9	=9	=9
0r	4G	4B-	1e-	2ee-
.	4F	4A-	.	.
.	4G	4B-	.	[2b-
.	4A-	4c	.	.
.	4B-	2d	2d	4b-]
.	4BB-	.	.	4a-
.	4E-	[2B-	2g	4g
.	4F	.	.	4a-
=10	=10	=10	=10	=10
0r	4G	4B-]	2e-	4b-
.	4F	4A-	.	4cc
.	4E-	4G	1b-	2dd
.	4D	4F	.	.
.	4E-	2G	.	1cc
.	4C	.	.	.
.	4F	[2F	2an	.
.	4E-	.	.	.
=11	=11	=11	=11	=11
0r	4D	1F_	[1b-	4b-
.	4C	.	.	4cc
.	4BB-	.	.	4dd
.	4C	.	.	4ee-
.	4D	4F]	2b-]	2ff
.	4E-	4G	.	.
.	2F	4A-	[2a-	4cc
.	.	4B-	.	4dd
=12	=12	=12	=12	=12
0r	4C	2c	2a-]	4ee-
.	4D	.	.	4ff
.	4E-	2B-	4g	[2gg
.	4F	.	4a-	.
.	4G	2e-	4b-	2.gg]
.	4A-	.	4cc	.
.	[2B-	2d	2dd	.
.	.	.	.	4ff
=13	=13	=13	=13	=13
0r	2B-]	1c	2g	4ee-
.	.	.	.	4cc
.	[2A-	.	[2f	4ff
.	.	.	.	4ee-
.	2A-]	[1B-	2f]	4dd
.	.	.	.	4b-
.	4G	.	2g	[2ee-
.	4E-	.	.	.
=14	=14	=14	=14	=14
1BB-	2.F	1B-_	4f	2ee-]
.	.	.	4e-	.
.	.	.	2f	2dd
.	4BB-	.	.	.
2GG	4E-	2B-]	2g	1ee-
.	4F	.	.	.
2C	4G	2c	4f	.
.	4An	.	4e-	.
=15	=15	=15	=15	=15
2BB-	1B-	2F	2d	4r
.	.	.	.	4bb-
1E-	.	2r	2e-	4aa-
.	.	.	.	4gg
.	1r	2c	1f	4aa-
.	.	.	.	4ff
2D	.	[2B-	.	4bb-
.	.	.	.	4aa-
=16	=16	=16	=16	=16
2E-	0r	2B-]	4e-	2gg
.	.	.	4ee-	.
2F	.	2r	4dd	1aa-
.	.	.	4cc	.
2BB-	.	1r	4dd	.
.	.	.	4b-	.
2C	.	.	4ee-	[2gg
.	.	.	4dd	.
=17	=17	=17	=17	=17
1AA-	4r	0r	1cc	2gg]
.	4b-	.	.	.
.	4a-	.	.	[2ff
.	4g	.	.	.
1BB-	4a-	.	[1dd	4ff]
.	4f	.	.	4aa-
.	4b-	.	.	4gg
.	4a-	.	.	4ff
=18	=18	=18	=18	=18
4C	1g	1r	2dd]	[1ee-
4B-	.	.	.	.
4An	.	.	4cc	.
4G	.	.	4b-	.
4A	1r	1f	1cc	2ee-]
4F	.	.	.	.
4B-	.	.	.	[2dd
4A	.	.	.	.
=19	=19	=19	=19	=19
2G	4r	1g	2b-	2dd]
.	4f	.	.	.
2c	4e-	.	[2cc	2ee-
.	4d	.	.	.
2An	4e-	2f	4cc]	[1ff
.	4c	.	4ee-	.
2F	4f	2an	4dd	.
.	4e-	.	4cc	.
=20	=20	=20	=20	=20
4B-	2.d	4b-	2.dd	4ff]
4F	.	4an	.	4aan
4G	.	2g	.	4bb-
4E-	4G	.	[4cc	4ee-
2F	4An	[1f	4cc]	2dd
.	4B-	.	2b-	.
2FF	2c	.	.	2cc
.	.	.	4an	.
=21	=21	=21	=21	=21
2BB-	2d	4f]	2b-	2b-
.	.	4B-	.	.
2r	2r	4c	2b-	2r
.	.	4d	.	.
1r	1r	4e-	2g	2r
.	.	4d	.	.
.	.	4e-	2cc	2ee-
.	.	4f	.	.
=22	=22	=22	=22	=22
0r	1r	4g	2b-	2dd
.	.	4f	.	.
.	.	4g	[2ee-	2gg
.	.	4a-	.	.
.	1B-	4b-	2ee-]	2ff
.	.	2f	.	.
.	.	.	2dd	[2bb-
.	.	4d	.	.
=23	=23	=23	=23	=23
0r	2G	2B-	4ee-	2bb-]
.	.	.	4gg	.
.	2c	2e-	4ff	1aa-
.	.	.	4ee-	.
.	2B-	2d	4ff	.
.	.	.	4dd	.
.	[2e-	4r	2ee-	2gg
.	.	4b-	.	.
=24	=24	=24	=24	=24
0r	2e-]	4a-	2cc	[1ff
.	.	4g	.	.
.	2d	4a-	[2b-	.
.	.	4f	.	.
.	2e-	2g	2b-]	4ff]
.	.	.	.	4ee-
.	2f	[2f	[2a-	4dd
.	.	.	.	4cc
=25	=25	=25	=25	=25
0r	2B-	2f]	2a-]	4dd
.	.	.	.	4b-
.	4c	[2e-	[2g	4ee-
.	4B-	.	.	4dd
.	[1A-	4e-]	4g]	1cc
.	.	4e-	4g	.
.	.	4d	4f	.
.	.	4c	4e-	.
=26	=26	=26	=26	=26
0r	2A-]	4d	4f	1b-
.	.	4B-	4d	.
.	[2G	4e-	4g	.
.	.	4d	4f	.
.	4G]	2c	2e-	1a-
.	4F	.	.	.
.	4E-	[2d	[2f	.
.	4D	.	.	.
=27	=27	=27	=27	=27
0r	2.E-	4d]	2f]	2g
.	.	4F	.	.
.	.	4G	2e-	2cc
.	4F	4A-	.	.
.	2.G	4B-	2d	2b-
.	.	4A-	.	.
.	.	4B-	2g	[2ee-
.	4A-	4c	.	.
=28	=28	=28	=28	=28
0r	2.B-	4d	2f	2ee-]
.	.	4e-	.	.
.	.	2f	[2b-	2dd
.	4A-	.	.	.
.	2G	4g	2b-]	2een
.	.	4G	.	.
.	2F	4A-	2a-	[2ff
.	.	4B-	.	.
=29	=29	=29	=29	=29
0r	1C	4c	1g	2ff]
.	.	4G	.	.
.	.	4c	.	1ee-
.	.	4B-	.	.
.	4D	2An	[1f	.
.	4C	.	.	.
.	4D	[2B-	.	2dd
.	4E-	.	.	.
=30	=30	=30	=30	=30
0r	4F	2B-]	1f_	1cc
.	4C	.	.	.
.	4F	[2A-	.	.
.	4E-	.	.	.
.	4D	2A-]	4f]	[1b-
.	4BB-	.	4d	.
.	[2E-	4G	4e-	.
.	.	4A-	4f	.
=31	=31	=31	=31	=31
1BB-	4E-]	[1B-	2g	4b-]
.	4D	.	.	4b-
.	4E-	.	2f	4cc
.	4F	.	.	4dd
2GG	2G	2B-]	4e-	4ee-
.	.	.	4f	4dd
2C	2E-	2e-	4g	4ee-
.	.	.	4a-	4ff
=32	=32	=32	=32	=32
2BB-	[1B-	2d	4b-	4gg
.	.	.	4a-	4ff
1E-	.	2g	4b-	4gg
.	.	.	4cc	4aa-
.	1B-]	2f	4dd	4bb-
.	.	.	4ee-	4ccc
[2D-	.	2b-	2ff	4bb-
.	.	.	.	4aa-
=33	=33	=33	=33	=33
4D-]	2.e-	2b-	1ee-	4gg
4E-	.	.	.	4ee-
4D-	.	2cc	.	[2aa-
4C	4A-	.	.	.
4D-	2F	1b-	2ff	2aa-]
4BB-	.	.	.	.
4E-	2G	.	[2ee-	[2gg
4D-	.	.	.	.
=34	=34	=34	=34	=34
4C	2c	1a-	2ee-]	2gg]
4BB-	.	.	.	.
4C	4r	.	[2b-	[2ff
4Dn	4F	.	.	.
4E-	4G	1g	4b-]	2ff]
4F	4A-	.	4dd	.
4G	4B-	.	4ee-	[2ee-
4E-	4e-	.	4b-	.
=35	=35	=35	=35	=35
4A-	4c	1f	2cc	2ee-]
4F	4A-	.	.	.
4B-	4d-	.	[2b-	[2dd-
4A-	4c	.	.	.
4G	4B-	2.e-	2b-]	2dd-]
4E-	4G	.	.	.
[2A-	4c	.	4a-	4cc
.	4A-	4a-	4cc	4ff
=36	=36	=36	=36	=36
2A-]	[1B-	2f	2b-	4ddn
.	.	.	.	4b-
4G	.	2g	2b-	1ee-
4E-	.	.	.	.
2B-	4B-]	1f	1b-	.
.	4c	.	.	.
2BB-	4B-	.	.	2dd
.	4A-	.	.	.
*M6/4	*M6/4	*M6/4	*M6/4	*M6/4
=37	=37	=37	=37	=37
2.EE-	4G	2.e-	2.b-	2.ee-
.	8E-	.	.	.
.	8D	.	.	.
.	8E-	.	.	.
.	8F	.	.	.
2.r	8G	2.r	2.r	2.r
.	8F	.	.	.
.	8G	.	.	.
.	8A-	.	.	.
.	8G	.	.	.
.	8A-	.	.	.
=38	=38	=38	=38	=38
1.r	8F	1.r	1.r	1.r
.	8E-	.	.	.
.	8F	.	.	.
.	8G	.	.	.
.	8F	.	.	.
.	8G	.	.	.
.	8A-	.	.	.
.	8G	.	.	.
.	8A-	.	.	.
.	8B-	.	.	.
.	8A-	.	.	.
.	8B-	.	.	.
=39	=39	=39	=39	=39
1.r	8G	4r	1.r	1.r
.	8F	.	.	.
.	8E-	8B-	.	.
.	8F	8An	.	.
.	8G	8B-	.	.
.	8An	8c	.	.
.	4B-	8d	.	.
.	.	8c	.	.
.	4F	8d	.	.
.	.	8e-	.	.
.	[4B-	8d	.	.
.	.	8e-	.	.
=40	=40	=40	=40	=40
1.r	4B-]	8c	1.r	1.r
.	.	8B-	.	.
.	8An	8c	.	.
.	8G	8d	.	.
.	8A	8c	.	.
.	8B-	8d	.	.
.	4c	8e-	.	.
.	.	8d	.	.
.	4G	8e-	.	.
.	.	8f	.	.
.	4A	8e-	.	.
.	.	8f	.	.
=41	=41	=41	=41	=41
1.r	4B-	8d	1.r	1.r
.	.	8e-	.	.
.	8F	8d	.	.
.	8E-	8c	.	.
.	8F	8d	.	.
.	8G	8B-	.	.
.	4A-	8c	.	.
.	.	8B-	.	.
.	4E-	8c	.	.
.	.	8d	.	.
.	4F	8c	.	.
.	.	8d	.	.
=42	=42	=42	=42	=42
1.r	4G	8B-	1.r	1.r
.	.	8c	.	.
.	8D	8B-	.	.
.	8C	8A-	.	.
.	8D	8B-	.	.
.	8E-	8G	.	.
.	4F	8A-	.	.
.	.	8G	.	.
.	4C	8A-	.	.
.	.	8B-	.	.
.	4D	8A-	.	.
.	.	8B-	.	.
=43	=43	=43	=43	=43
1.r	2E-	8G	4r	1.r
.	.	8F	.	.
.	.	8G	8e-	.
.	.	8A-	8d	.
.	4D	8G	8e-	.
.	.	8F	8f	.
.	4C	4E-	8g	.
.	.	.	8f	.
.	4c	[2e-	8g	.
.	.	.	8a-	.
.	4B-	.	8g	.
.	.	.	8a-	.
=44	=44	=44	=44	=44
1.r	4A-	2.e-_	8f	1.r
.	.	.	8e-	.
.	4G	.	8f	.
.	.	.	8g	.
.	4A-	.	8f	.
.	.	.	8g	.
.	4F	4e-]	8a-	.
.	.	.	8g	.
.	4B-	2d	8a-	.
.	.	.	8b-	.
.	4BB-	.	8a-	.
.	.	.	8b-	.
=45	=45	=45	=45	=45
1.r	8E-	4g	4e-	4r
.	8D	.	.	.
.	8E-	2e-	2g	8b-
.	8F	.	.	8an
.	8G	.	.	8b-
.	8An	.	.	8cc
.	[2.B-	4d	4f	8dd
.	.	.	.	8cc
.	.	4g	4b-	8dd
.	.	.	.	8ee-
.	.	4f	4an	8dd
.	.	.	.	8ee-
=46	=46	=46	=46	=46
1.r	2.B-_	8e-	[2.g	8cc
.	.	8d	.	8b-
.	.	8e-	.	8cc
.	.	8f	.	8dd
.	.	8e-	.	8cc
.	.	8d	.	8dd
.	4B-]	2.c	4g]	8ee-
.	.	.	.	8dd
.	2An	.	[2f	8ee-
.	.	.	.	8ff
.	.	.	.	8ee-
.	.	.	.	8ff
=47	=47	=47	=47	=47
1.r	4B-	4B-	4f]	8dd
.	.	.	.	8cc
.	4r	8b-	4r	8dd
.	.	8cc	.	8ee-
.	4r	8b-	4r	8ff
.	.	8a-	.	8dd
.	2.r	8g	2.r	4ee-
.	.	8a-	.	.
.	.	8g	.	4bb-
.	.	8f	.	.
.	.	8g	.	[4dd-
.	.	8e-	.	.
=48	=48	=48	=48	=48
1.r	1.r	8a-	1.r	4dd-]
.	.	8b-	.	.
.	.	8a-	.	8cc
.	.	8g	.	8bn
.	.	8a-	.	8cc
.	.	8g	.	8ee-
.	.	8f	.	4ddn
.	.	8g	.	.
.	.	8f	.	4aa-
.	.	8e-	.	.
.	.	8f	.	[4cc
.	.	8d	.	.
=49	=49	=49	=49	=49
1.r	1.r	4r	8g	4cc]
.	.	.	8a-	.
.	.	8e-	[2g	8b-
.	.	8f	.	8dd
.	.	8e-	.	8cc
.	.	8d	.	8b-
.	.	8c	4g]	[2.ee-
.	.	8d	.	.
.	.	8c	4a-	.
.	.	8Bn	.	.
.	.	8c	4g	.
.	.	8An	.	.
=50	=50	=50	=50	=50
1.r	1.r	8d	[2.f	4ee-]
.	.	8e-	.	.
.	.	8d	.	4ff
.	.	8c	.	.
.	.	8d	.	4ee-
.	.	8c	.	.
.	.	8Bn	4f]	[2.dd
.	.	8c	.	.
.	.	8B	4g	.
.	.	8An	.	.
.	.	8B	4f	.
.	.	8G	.	.
=51	=51	=51	=51	=51
1.r	4r	4c	4e-	8dd]
.	.	.	.	8g
.	8A-	4d	4f	4cc
.	8B-	.	.	.
.	8A-	4e-	4g	4bn
.	8G	.	.	.
.	8F	4A-	2.a-	4cc
.	8G	.	.	.
.	8F	[2f	.	4dd
.	8E-	.	.	.
.	8F	.	.	4cc
.	8D	.	.	.
=52	=52	=52	=52	=52
1.r	8G	4f]	[2.g	[2.b-
.	8A-	.	.	.
.	8G	4e-	.	.
.	8F	.	.	.
.	8G	4d	.	.
.	8F	.	.	.
.	8En	[2.c	2.g_	4b-]
.	8F	.	.	.
.	8E	.	.	4cc
.	8D	.	.	.
.	8E	.	.	4b-
.	8C	.	.	.
=53	=53	=53	=53	=53
1.r	[2.F	2c]	8g]	2a-
.	.	.	8g	.
.	.	.	8f	.
.	.	.	8en	.
.	.	4d-	8f	4b-
.	.	.	8g	.
.	2F]	4c	8a-	2cc
.	.	.	8g	.
.	.	2f	8a-	.
.	.	.	8b-	.
.	4F	.	8a-	4ddn
.	.	.	8b-	.
=54	=54	=54	=54	=54
1.r	[2.G	8B-	8g	2.ee-
.	.	8An	8f	.
.	.	8B-	8g	.
.	.	8c	8an	.
.	.	8B-	8g	.
.	.	8c	8a	.
.	2.G]	8d	2b-	4dd
.	.	8c	.	.
.	.	8d	.	2gg
.	.	8e-	.	.
.	.	8d	[4ee-	.
.	.	8e-	.	.
=55	=55	=55	=55	=55
1.r	[2.An	8c	4ee-]	[2.ff
.	.	8B-	.	.
.	.	8c	4f	.
.	.	8d	.	.
.	.	8c	4an	.
.	.	8d	.	.
.	2.A]	8e-	8cc	2.ff_
.	.	8d	8b-	.
.	.	8e-	8cc	.
.	.	8f	8dd	.
.	.	8e-	8cc	.
.	.	8f	8dd	.
=56	=56	=56	=56	=56
1.r	2.B-	8d	2b-	8ff]
.	.	8c	.	8ee-
.	.	8d	.	8ff
.	.	8e-	.	8gg
.	.	8d	4r	8ff
.	.	8e-	.	8gg
.	4r	4f	4r	8aa-
.	.	.	.	8gg
.	4D	[2B-	2ff	8aa-
.	.	.	.	8bb-
.	4BB-	.	.	8aa-
.	.	.	.	8bb-
=57	=57	=57	=57	=57
1.r	4E-	4B-]	4ee-	8gg
.	.	.	.	8ff
.	4r	8e-	4r	8gg
.	.	8f	.	8aan
.	4r	8e-	4r	8gg
.	.	8f	.	8aa
.	4r	4g	4r	8bb-
.	.	.	.	8aa
.	4En	[2c	[2gg	8bb-
.	.	.	.	8ccc
.	4C	.	.	8bb-
.	.	.	.	8ccc
=58	=58	=58	=58	=58
1.r	4F	2c]	8gg]	2aan
.	.	.	8gg	.
.	4D	.	8ff	.
.	.	.	8ee-	.
.	4G	4B-	8dd	2bb-
.	.	.	8cc	.
.	4E-	4G	8dd	.
.	.	.	8ee-	.
.	2F	8r	2cc	2aaT
.	.	8An	.	.
.	.	8c	.	.
.	.	[8f	.	.
=59	=59	=59	=59	=59
1.r	4B-	4f]	2.dd	2.bb-
.	8BB-	4r	.	.
.	8AAn	.	.	.
.	8BB-	4r	.	.
.	8C	.	.	.
.	8D	4r	2.r	2.r
.	8C	.	.	.
.	8D	2B-	.	.
.	8E-	.	.	.
.	8C	.	.	.
.	8D	.	.	.
=60	=60	=60	=60	=60
1.r	8E-	4G	1.r	1.r
.	8D	.	.	.
.	8E-	2c	.	.
.	8F	.	.	.
.	8E-	.	.	.
.	8F	.	.	.
.	8G	4B-	.	.
.	8F	.	.	.
.	8G	[2e-	.	.
.	8A-	.	.	.
.	8G	.	.	.
.	8A-	.	.	.
=61	=61	=61	=61	=61
1.r	8B-	4e-]	1.r	1.r
.	8A-	.	.	.
.	8B-	2dT	.	.
.	8c	.	.	.
.	8B-	.	.	.
.	8A-	.	.	.
.	8G	4e-	.	.
.	8A-	.	.	.
.	4B-	8E-	.	.
.	.	8D	.	.
.	4G	8E-	.	.
.	.	8F	.	.
=62	=62	=62	=62	=62
1.r	4E-	8G	4r	1.r
.	.	8F	.	.
.	4r	8G	2e-	.
.	.	8An	.	.
.	4C	8G	.	.
.	.	8A	.	.
.	4G	8B-	4d	.
.	.	8A	.	.
.	4r	8B-	2g	.
.	.	8c	.	.
.	4E-	8B-	.	.
.	.	8c	.	.
=63	=63	=63	=63	=63
1.r	4B-	8d	4f	1.r
.	.	8c	.	.
.	4r	8d	[2b-	.
.	.	8e-	.	.
.	4G	8d	.	.
.	.	8e-	.	.
.	4D	8f	4b-]	.
.	.	8e-	.	.
.	4E-	8f	2an	.
.	.	8g	.	.
.	4F	8f	.	.
.	.	8e-	.	.
=64	=64	=64	=64	=64
1.r	4BB-	8d	2b-	1.r
.	.	8c	.	.
.	8B-	8d	.	.
.	8c	8e-	.	.
.	8B-	[4f	4r	.
.	8A-	.	.	.
.	8G	4f]	2b-	.
.	8A-	.	.	.
.	8G	4e-	.	.
.	8F	.	.	.
.	8G	4d	4a-	.
.	8F	.	.	.
=65	=65	=65	=65	=65
1.r	8E-	8e-	2g	1.r
.	8G	8d	.	.
.	8c	8e-	.	.
.	8d-	8f	.	.
.	8c	[4g	4r	.
.	8B-	.	.	.
.	8A-	4g]	2cc	.
.	8B-	.	.	.
.	8A-	4f	.	.
.	8G	.	.	.
.	8A-	4en	[4b-	.
.	8G	.	.	.
=66	=66	=66	=66	=66
1.r	8F	4f	4b-]	1.r
.	8G	.	.	.
.	8F	[2c	4a-	.
.	8E-	.	.	.
.	8F	.	4g	.
.	8E-	.	.	.
.	8D-	4c]	[2.f	.
.	8E-	.	.	.
.	8D-	4B-	.	.
.	8C	.	.	.
.	8D-	4A-	.	.
.	8C	.	.	.
=67	=67	=67	=67	=67
1.r	8BB-	[2.G	4f]	2.r
.	8AA-	.	.	.
.	8BB-	.	4en	.
.	8D-	.	.	.
.	8C	.	4g	.
.	8BB-	.	.	.
.	4AA-	4G]	2c	4r
.	2D-	2F	.	8f
.	.	.	.	8en
.	.	.	4B-	8f
.	.	.	.	8g
=68	=68	=68	=68	=68
1.r	4C	4En	2c	8a-
.	.	.	.	8g
.	[2F	4F	.	8a-
.	.	.	.	8b-
.	.	4d-	4f	8a-
.	.	.	.	8b-
.	4F]	2G	[2.g	8cc
.	.	.	.	8b-
.	2En	.	.	8cc
.	.	.	.	8dd-
.	.	[4c	.	8cc
.	.	.	.	8b-
=69	=69	=69	=69	=69
1.r	2F	4c]	4g]	8a-
.	.	.	.	8g
.	.	4r	2f	8a-
.	.	.	.	8b-
.	4G	4r	.	8a-
.	.	.	.	8b-
.	4A-	2.r	4e-	8cc
.	.	.	.	8b-
.	4r	.	2a-	8cc
.	.	.	.	8ddn
.	4F	.	.	8cc
.	.	.	.	8dd
=70	=70	=70	=70	=70
1.r	4c	1.r	4g	8ee-
.	.	.	.	8dd
.	4r	.	[2cc	8ee-
.	.	.	.	8ff
.	4A-	.	.	8ee-
.	.	.	.	8ff
.	4E-	.	4cc]	8gg
.	.	.	.	8ff
.	4F	.	2bn	8gg
.	.	.	.	8aa-
.	4G	.	.	8gg
.	.	.	.	8ff
=71	=71	=71	=71	=71
1.r	4C	1.r	4cc	8ee-
.	.	.	.	8dd
.	4r	.	8cc	8ee-
.	.	.	8dd	8ff
.	4r	.	8cc	[4gg
.	.	.	8b-	.
.	2.r	.	8a-	4gg]
.	.	.	8b-	.
.	.	.	8a-	4ff
.	.	.	8g	.
.	.	.	8a-	[4ee-
.	.	.	8g	.
=72	=72	=72	=72	=72
1.r	1.r	1.r	4f	8ee-]
.	.	.	.	8cc
.	.	.	8b-	8dd
.	.	.	8cc	8ee-
.	.	.	8b-	[4ff
.	.	.	8a-	.
.	.	.	8g	4ff]
.	.	.	8a-	.
.	.	.	8g	4ee-
.	.	.	8f	.
.	.	.	8g	[4aa-
.	.	.	8f	.
=73	=73	=73	=73	=73
1.r	1.r	4r	8e-	4aa-]
.	.	.	8f	.
.	.	2c	8e-	4gg
.	.	.	8d	.
.	.	.	8e-	4ff#
.	.	.	8c	.
.	.	4Bn	4d	8gg
.	.	.	.	8ffn
.	.	2e-	4r	8gg
.	.	.	.	8aa-
.	.	.	4g	8gg
.	.	.	.	8ff
=74	=74	=74	=74	=74
1.r	1.r	4c	2cc	8ee-
.	.	.	.	8ff
.	.	[2g	.	8ee-
.	.	.	.	8dd
.	.	.	4b-	8ee-
.	.	.	.	8dd
.	.	4g]	[2.an	8cc
.	.	.	.	8b-
.	.	2f#	.	8cc
.	.	.	.	8ee-
.	.	.	.	8dd
.	.	.	.	8cc
=75	=75	=75	=75	=75
1.r	1.r	8g	4a]	2b-
.	.	8fn	.	.
.	.	8e-	[2g	.
.	.	8f	.	.
.	.	8e-	.	4b-
.	.	8d	.	.
.	.	8c	4g]	2ee-
.	.	8d	.	.
.	.	8c	[2cc	.
.	.	8B-	.	.
.	.	8c	.	4een
.	.	8B-	.	.
=76	=76	=76	=76	=76
1.r	1.r	8An	4cc]	2ff
.	.	8c	.	.
.	.	8f	[2an	.
.	.	8g	.	.
.	.	8f	.	4cc
.	.	8e-	.	.
.	.	8d	4a]	2ff
.	.	8e-	.	.
.	.	8d	[2dd	.
.	.	8c	.	.
.	.	8d	.	4ff#
.	.	8c	.	.
=77	=77	=77	=77	=77
1.r	4r	8Bn	8dd]	[2.gg
.	.	8An	8cc	.
.	2G	8B	8dd	.
.	.	8c	8ee-	.
.	.	8A	8cc	.
.	.	8B	8dd	.
.	4E-	8c	8ee-	4gg]
.	.	8B	8dd	.
.	2A-	8c	8ee-	2ccc
.	.	8d	8ff	.
.	.	8c	8ee-	.
.	.	8d	8ff	.
=78	=78	=78	=78	=78
1.r	4G	8e-	4.gg	4bb-
.	.	8d	.	.
.	[2c	8e-	.	[2aa-
.	.	8f	8cc	.
.	.	8e-	8ff	.
.	.	8f	8ee-	.
.	4c]	8g	4.dd	4aa-]
.	.	8fn	.	.
.	2Bn	8g	.	[2gg
.	.	8a-	8ff	.
.	.	8g	8ee-	.
.	.	8f	8dd	.
=79	=79	=79	=79	=79
1.r	2c	8e-	[2.cc	4gg]
.	.	8f	.	.
.	.	8e-	.	4aa-
.	.	8d	.	.
.	4B-	8e-	.	[4gg
.	.	8d	.	.
.	2A-	8c	2.cc_	4gg]
.	.	8d-	.	.
.	.	8c	.	4ff
.	.	8B-	.	.
.	4G	8c	.	[4ee-
.	.	8B-	.	.
=80	=80	=80	=80	=80
1.r	2F	8A-	4cc]	4ee-]
.	.	8B-	.	.
.	.	8A-	4bn	4dd
.	.	8G	.	.
.	4E-	8A-	[4cc	4cc
.	.	8G	.	.
.	2D	8F	4cc]	[2.ff
.	.	8G	.	.
.	.	8F	4b	.
.	.	8E-	.	.
.	4C	8F	4dd	.
.	.	8E-	.	.
=81	=81	=81	=81	=81
1.r	4BBn	4D	4g	8ff]
.	.	.	.	8ff
.	4GG	2G	4bn	8ee-
.	.	.	.	8dd
.	4C	.	2cc	4.ee-
.	4F	4A-	.	.
.	.	.	.	8ff
.	2G	8r	2b-	4.dd
.	.	8Bn	.	.
.	.	8d	.	.
.	.	8f	.	8cc
*M12/8	*M12/8	*M12/8	*M12/8	*M12/8
=82	=82	=82	=82	=82
1.r	8C	4.e-	4.g	4.cc
.	8E-	.	.	.
.	8G	.	.	.
.	8c	4.r	4.r	4.r
.	8B-	.	.	.
.	8c	.	.	.
.	8F	2.r	2.r	2.r
.	16A-	.	.	.
.	16G	.	.	.
.	16A-	.	.	.
.	16F	.	.	.
.	8B-	.	.	.
.	8A-	.	.	.
.	8B-	.	.	.
=83	=83	=83	=83	=83
1.r	8E-	4.r	1.r	1.r
.	16G	.	.	.
.	16F	.	.	.
.	16G	.	.	.
.	16E-	.	.	.
.	2.B-	8g	.	.
.	.	8f	.	.
.	.	8g	.	.
.	.	8c	.	.
.	.	16e-	.	.
.	.	16d	.	.
.	.	16e-	.	.
.	.	16c	.	.
.	[4.A-	8f	.	.
.	.	8e-	.	.
.	.	8f	.	.
=84	=84	=84	=84	=84
1.r	4.A-]	8B-	1.r	1.r
.	.	16d	.	.
.	.	16c	.	.
.	.	16d	.	.
.	.	16B-	.	.
.	16G	8e-	.	.
.	16F	.	.	.
.	16E-	8r	.	.
.	16F	.	.	.
.	16G	8r	.	.
.	16A-	.	.	.
.	8B-	16d	.	.
.	.	16c	.	.
.	8r	16B-	.	.
.	.	16c	.	.
.	8r	16d	.	.
.	.	16e-	.	.
.	16A-	8f	.	.
.	16G	.	.	.
.	16F	8r	.	.
.	16G	.	.	.
.	16A-	8r	.	.
.	16B-	.	.	.
=85	=85	=85	=85	=85
1.r	4c	16e-	4.r	1.r
.	.	16f	.	.
.	.	16g	.	.
.	.	16f	.	.
.	8B-	16e-	.	.
.	.	16d	.	.
.	[4.A-	8c	8cc	.
.	.	8d-	8b-	.
.	.	8e-	8cc	.
.	8A-]	[4.d-	8f	.
.	8G	.	16a-	.
.	.	.	16g	.
.	8F	.	16a-	.
.	.	.	16f	.
.	[4.G	8d-]	8b-	.
.	.	8c	8a-	.
.	.	8B-	8b-	.
=86	=86	=86	=86	=86
1.r	8G]	[4.c	8e-	1.r
.	8F	.	16g	.
.	.	.	16f	.
.	8E-	.	16g	.
.	.	.	16e-	.
.	8F	4c]	[4.a-	.
.	8E-	.	.	.
.	8F	8c	.	.
.	8BB-	8d	4.a-]	.
.	16D	16f	.	.
.	16C	16e-	.	.
.	16D	16f	.	.
.	16BB-	16d	.	.
.	8E-	4.B-	[4.g	.
.	8D	.	.	.
.	8E-	.	.	.
=87	=87	=87	=87	=87
1.r	8AAn	8c	4.g]	2.r
.	16C	16e-	.	.
.	16BB-	16d	.	.
.	16C	16e-	.	.
.	16AA	16c	.	.
.	8D	4An	4.f#	.
.	8C	.	.	.
.	8D	[8c	.	.
.	4.GG	8c]	4.g	4.r
.	.	8B-	.	.
.	.	8An	.	.
.	4.r	[4.B-	4.r	8gg
.	.	.	.	8ffn
.	.	.	.	8gg
=88	=88	=88	=88	=88
1.r	1.r	8B-]	1.r	8cc
.	.	8A-	.	16een
.	.	.	.	16dd
.	.	8G	.	16ee
.	.	.	.	16cc
.	.	[4.A-	.	8ff
.	.	.	.	8ee-
.	.	.	.	8ff
.	.	8A-]	.	8b-
.	.	8G	.	16dd
.	.	.	.	16cc
.	.	8F	.	16dd
.	.	.	.	16b-
.	.	16G	.	[4.ee-
.	.	16F	.	.
.	.	16E-	.	.
.	.	16F	.	.
.	.	16G	.	.
.	.	16A-	.	.
=89	=89	=89	=89	=89
1.r	1.r	16B-	2.r	4.ee-]
.	.	16A-	.	.
.	.	16B-	.	.
.	.	16c	.	.
.	.	16d	.	.
.	.	16e-	.	.
.	.	16f	.	4.dd
.	.	16e-	.	.
.	.	16f	.	.
.	.	16g	.	.
.	.	16a-	.	.
.	.	16b-	.	.
.	.	4.e-	16r	2.gg
.	.	.	16g	.
.	.	.	16a-	.
.	.	.	16b-	.
.	.	.	16cc	.
.	.	.	16dd	.
.	.	16r	[4.ee-	.
.	.	16f	.	.
.	.	16e-	.	.
.	.	16d	.	.
.	.	16c	.	.
.	.	16B-	.	.
=90	=90	=90	=90	=90
1.r	2.r	16An	4.ee-]	4.ff
.	.	16F	.	.
.	.	16G	.	.
.	.	16A	.	.
.	.	16B-	.	.
.	.	16c	.	.
.	.	16d	8dd	2.bb-
.	.	16B-	.	.
.	.	16c	8ee-	.
.	.	16d	.	.
.	.	16e-	[8dd	.
.	.	16f	.	.
.	4.r	16g	8dd]	.
.	.	16a-	.	.
.	.	16g	8ee-	.
.	.	16f	.	.
.	.	16e-	[8cc	.
.	.	16d	.	.
.	4.c	[4.e-	8cc]	4.aan
.	.	.	8b-	.
.	.	.	8cc	.
=91	=91	=91	=91	=91
1.r	[2.B-	4.e-]	8f	8bb-
.	.	.	16g	8r
.	.	.	16an	.
.	.	.	16b-	8r
.	.	.	16cc	.
.	.	4.d	4.dd	8bb-
.	.	.	.	8aa-
.	.	.	.	8bb-
.	4.B-]	2.g	2.cc	8ee-
.	.	.	.	16gg
.	.	.	.	16ff
.	.	.	.	16gg
.	.	.	.	16ee-
.	[4.A-	.	.	8aa-
.	.	.	.	8gg
.	.	.	.	8aa-
=92	=92	=92	=92	=92
4.r	4.A-]	4.f	4.b-	8dd
.	.	.	.	16ff
.	.	.	.	16ee-
.	.	.	.	16ff
.	.	.	.	16dd
8G	8G	[4.b-	[4.ee-	[4.gg
8F	8A-	.	.	.
8G	8B-	.	.	.
8C	4c	4.b-]	4.ee-]	4.gg]
16E-	.	.	.	.
16D	.	.	.	.
16E-	8G	.	.	.
16C	.	.	.	.
8F	8A-	4.a-	4.cc	4ff
8E-	8G	.	.	.
8F	8A-	.	.	8ee-
=93	=93	=93	=93	=93
8BB-	4.B-	4.a-	4.b-	4.dd
16D	.	.	.	.
16C	.	.	.	.
16D	.	.	.	.
16BB-	.	.	.	.
2.E-	4.r	8g	16cc	4.r
.	.	.	16dd	.
.	.	8f	16ee-	.
.	.	.	16dd	.
.	.	8g	16cc	.
.	.	.	16b-	.
.	2.r	8c	16an	2.ff
.	.	.	16b-	.
.	.	16e-	16cc	.
.	.	16d	16b-	.
.	.	16e-	16cc	.
.	.	16c	16a	.
[4.D-	.	8f	16b-	.
.	.	.	16cc	.
.	.	8e-	16dd-	.
.	.	.	16cc	.
.	.	8f	16b-	.
.	.	.	16a-	.
=94	=94	=94	=94	=94
4.D-]	1.r	4.B-	16g	[4.ee-
.	.	.	16a-	.
.	.	.	16b-	.
.	.	.	16a-	.
.	.	.	16b-	.
.	.	.	16g	.
4.C	.	16e-	8a-	8ee-]
.	.	16E-	.	.
.	.	16F	8r	8dd-
.	.	16G	.	.
.	.	16A-	8r	8ee-
.	.	16B-	.	.
2.F	.	[4.c	2.r	8a-
.	.	.	.	16cc
.	.	.	.	16b-
.	.	.	.	16cc
.	.	.	.	16a-
.	.	16c]	.	8dd-
.	.	16D-	.	.
.	.	16E-	.	8cc
.	.	16F	.	.
.	.	16G	.	8dd-
.	.	16A-	.	.
=95	=95	=95	=95	=95
4.E-	1.r	16B-	4.r	8g
.	.	16c	.	.
.	.	16d-	.	16b-
.	.	16c	.	16a-
.	.	16d-	.	16b-
.	.	16B-	.	16g
2.A-	.	16c	4.ee-	8cc
.	.	16d-	.	.
.	.	16e-	.	8b-
.	.	16d-	.	.
.	.	16e-	.	8cc
.	.	16c	.	.
.	.	2.B-	[2.dd-	8f
.	.	.	.	16a-
.	.	.	.	16g
.	.	.	.	16a-
.	.	.	.	16f
4.G	.	.	.	8b-
.	.	.	.	8a-
.	.	.	.	8b-
=96	=96	=96	=96	=96
4.A-	1.r	[2.A-	8dd-]	8e-
.	.	.	8cc	16f
.	.	.	.	16g
.	.	.	8r	16a-
.	.	.	.	16b-
4.F	.	.	2.r	16cc
.	.	.	.	16a-
.	.	.	.	16b-
.	.	.	.	16cc
.	.	.	.	16ddn
.	.	.	.	16een
2.D-	.	8A-]	.	16ff
.	.	.	.	16ee
.	.	8c	.	16ff
.	.	.	.	16gg
.	.	[8f	.	16aa-
.	.	.	.	16ff
.	.	8f]	4.b-	16bb-
.	.	.	.	16ccc
.	.	8en	.	16bb-
.	.	.	.	16aa-
.	.	8f	.	16gg
.	.	.	.	16ff
=97	=97	=97	=97	=97
[4.C	4.r	4.g	4.b-	16een
.	.	.	.	16gg
.	.	.	.	16ff
.	.	.	.	16ee
.	.	.	.	16dd
.	.	.	.	16cc
4C]	8d	4.f	4.a-	[4.ff
.	8c	.	.	.
8BBn	8d	.	.	.
4.C	8G	4.cc	2.g	4.ff]
.	16B-	.	.	.
.	16A-	.	.	.
.	16B-	.	.	.
.	16G	.	.	.
4.CC	8c	4.b-	.	4.een
.	8B-	.	.	.
.	8c	.	.	.
=98	=98	=98	=98	=98
4.FF	8F	2.a-	4.f	4.ff
.	16A-	.	.	.
.	16G	.	.	.
.	16A-	.	.	.
.	16F	.	.	.
4.r	8B-	.	[4.dd-	4.r
.	8A-	.	.	.
.	8B-	.	.	.
2.r	8E-	2.g	4.dd-]	4.r
.	16G	.	.	.
.	16F	.	.	.
.	16G	.	.	.
.	16E-	.	.	.
.	8A-	.	[4.cc	[4.ee-
.	8G	.	.	.
.	8A-	.	.	.
=99	=99	=99	=99	=99
1.r	8D-	2.f	4.cc]	4.ee-]
.	16E-	.	.	.
.	16F	.	.	.
.	16G	.	.	.
.	16An	.	.	.
.	16B-	.	[4.b-	[4.dd-
.	16c	.	.	.
.	16B-	.	.	.
.	16A-	.	.	.
.	16G	.	.	.
.	16F	.	.	.
.	16G	4.e-	4.b-]	4.dd-]
.	16E-	.	.	.
.	16F	.	.	.
.	16G	.	.	.
.	16A-	.	.	.
.	16B-	.	.	.
.	16c	4.r	[4.a-	4.cc
.	16B-	.	.	.
.	16A-	.	.	.
.	16B-	.	.	.
.	16c	.	.	.
.	16d-	.	.	.
=100	=100	=100	=100	=100
1.r	2.e-	1.r	4.a-]	8b-
.	.	.	.	16cc
.	.	.	.	16ddn
.	.	.	.	16ee-
.	.	.	.	16ff
.	.	.	[4.g	16gg
.	.	.	.	16aa-
.	.	.	.	16gg
.	.	.	.	16ff
.	.	.	.	16ee-
.	.	.	.	16dd
.	2.A-	.	4.g]	8cc
.	.	.	.	16dd
.	.	.	.	16ee-
.	.	.	.	16ff
.	.	.	.	16gg
.	.	.	[4.f	16aa-
.	.	.	.	16gg
.	.	.	.	16ff
.	.	.	.	16ee-
.	.	.	.	16dd
.	.	.	.	16cc
=101	=101	=101	=101	=101
4.r	4.G	1.r	4.f]	16bn
.	.	.	.	16dd
.	.	.	.	16cc
.	.	.	.	16b-
.	.	.	.	16an
.	.	.	.	16g
2.C	8A-	.	4.e-	4.ee-
.	8G	.	.	.
.	8A-	.	.	.
.	8D	.	8f	[2.dd
.	16F	.	16a-	.
.	16E-	.	16g	.
.	16F	.	16a-	.
.	16D	.	16f	.
4.BBn	8G	.	8d	.
.	8F	.	[4g	.
.	8G	.	.	.
=102	=102	=102	=102	=102
2.E-	8C	16r	4.g]	4.dd]
.	.	16G	.	.
.	8r	16An	.	.
.	.	16Bn	.	.
.	8r	16c	.	.
.	.	16d	.	.
.	4.r	16e-	4.r	16cc
.	.	16d	.	16g
.	.	16c	.	16an
.	.	16d	.	16bn
.	.	16e-	.	16cc
.	.	16f	.	16dd
4.C	2.r	16g	2.r	[4.ee-
.	.	16a-	.	.
.	.	16g	.	.
.	.	16f	.	.
.	.	16e-	.	.
.	.	16d	.	.
[4.G	.	16c	.	8ee-]
.	.	16d	.	.
.	.	16c	.	8dd
.	.	16B-	.	.
.	.	16An	.	8ee-
.	.	16B-	.	.
=103	=103	=103	=103	=103
4.G]	1.r	8c	4.r	8an
.	.	8d	.	16cc
.	.	.	.	16b-
.	.	8e-	.	16cc
.	.	.	.	16a
4.F#	.	4.An	[4.a	16dd
.	.	.	.	16cc
.	.	.	.	16dd
.	.	.	.	16ee-
.	.	.	.	16dd
.	.	.	.	16cc
4.G	.	16B-	4.a]	4.b-
.	.	16G	.	.
.	.	16A	.	.
.	.	16B-	.	.
.	.	16c	.	.
.	.	16d	.	.
4.r	.	[4.e-	4.g	16r
.	.	.	.	16b-
.	.	.	.	16cc
.	.	.	.	16dd
.	.	.	.	16ee-
.	.	.	.	16ff
=104	=104	=104	=104	=104
2.r	1.r	16e-]	[4.cc	[4.gg
.	.	16c	.	.
.	.	16d	.	.
.	.	16e-	.	.
.	.	16f	.	.
.	.	16g	.	.
.	.	[4.a-	4.cc]	16gg]
.	.	.	.	16bb-
.	.	.	.	16aa-
.	.	.	.	16gg
.	.	.	.	16ff
.	.	.	.	16ee-
4.r	.	4.a-]	4.b-	16dd
.	.	.	.	16cc
.	.	.	.	16dd
.	.	.	.	16ff
.	.	.	.	16ee-
.	.	.	.	16dd
8c	.	4.g	[4.ee-	16ee-
.	.	.	.	16dd
8B-	.	.	.	16ee-
.	.	.	.	16gg
8c	.	.	.	16ff
.	.	.	.	16ee-
=105	=105	=105	=105	=105
8F	2.r	2.f	4.ee-]	2.aa-
16A-	.	.	.	.
16G	.	.	.	.
16A-	.	.	.	.
16F	.	.	.	.
8B-	.	.	4.dd	.
8A-	.	.	.	.
8B-	.	.	.	.
8E-	4.r	2.e-	[4.ee-	16gg
.	.	.	.	16aa-
16G	.	.	.	16bb-
16F	.	.	.	16aa-
16G	.	.	.	16bb-
16E-	.	.	.	16gg
8A-	8c	.	16ee-]	[4.ccc
.	.	.	16dd	.
8G	8B-	.	16ee-	.
.	.	.	16ff	.
8A-	8c	.	16dd	.
.	.	.	16ee-	.
=106	=106	=106	=106	=106
8D	8F	2.d	[4.ff	4.ccc]
16F	16A-	.	.	.
16E-	16G	.	.	.
16F	16A-	.	.	.
16D	16F	.	.	.
8G	8B-	.	16ff]	2.bb-
.	.	.	16ee-	.
8F	8A-	.	16ff	.
.	.	.	16gg	.
8G	8B-	.	16ff	.
.	.	.	16gg	.
8C	8E-	2.c	[4.ee-	.
16E-	16G	.	.	.
16D	16F	.	.	.
16E-	16G	.	.	.
16C	16E-	.	.	.
8F	8A-	.	16ee-]	[4.aa-
.	.	.	16dd	.
8E-	8G	.	16ee-	.
.	.	.	16ff	.
8F	8A-	.	16ee-	.
.	.	.	16ff	.
=107	=107	=107	=107	=107
4.BB-	8F	4B-	16dd	4.aa-]
.	.	.	16ee-	.
.	8G	.	16ff	.
.	.	.	16ee-	.
.	8A-	8c	16dd	.
.	.	.	16cc	.
4.r	[4.B-	4.d	8b-	8gg
.	.	.	8a-	8ff
.	.	.	8b-	8gg
2.r	4.B-]	4.e-	4.g	8cc
.	.	.	.	16ee-
.	.	.	.	16dd
.	.	.	.	16ee-
.	.	.	.	16cc
.	[4.A-	4.c	8a-	8ff
.	.	.	8g	8ee-
.	.	.	8a-	8ff
=108	=108	=108	=108	=108
4.r	4.A-]	4.d	4.f	8b-
.	.	.	.	16dd
.	.	.	.	16cc
.	.	.	.	16dd
.	.	.	.	16b-
2.E-	16G	[4.g	[4.b-	8ee-
.	16E-	.	.	.
.	16F	.	.	8r
.	16G	.	.	.
.	16A-	.	.	8r
.	16B-	.	.	.
.	[4.c	4.g_	16b-]	4.r
.	.	.	16dd-	.
.	.	.	16cc	.
.	.	.	16b-	.
.	.	.	16a-	.
.	.	.	16g	.
4.C	16c]	4.g]	4.a-	[4.ee-
.	16d-	.	.	.
.	16c	.	.	.
.	16B-	.	.	.
.	16A-	.	.	.
.	16G	.	.	.
=109	=109	=109	=109	=109
2.F	16A-	2.f	2.a-	4.ee-]
.	16B-	.	.	.
.	16A-	.	.	.
.	16G	.	.	.
.	16F	.	.	.
.	16E-	.	.	.
.	16F	.	.	4.ddn
.	16A-	.	.	.
.	16G	.	.	.
.	16F	.	.	.
.	16E-	.	.	.
.	16D	.	.	.
4.E-	4.E-	4B-	16r	2.gg
.	.	.	16ff	.
.	.	.	16ee-	.
.	.	.	16dd-	.
.	.	8r	16cc	.
.	.	.	16b-	.
[4.A-	4.r	16r	4.cc	.
.	.	16b-	.	.
.	.	16a-	.	.
.	.	16g	.	.
.	.	16f	.	.
.	.	16e-	.	.
=110	=110	=110	=110	=110
4.A-]	16r	4.b-	4.ddn	4.ff
.	16g	.	.	.
.	16f	.	.	.
.	16e-	.	.	.
.	16d	.	.	.
.	16c	.	.	.
4.G	4.B-	4.r	16r	2.bb-
.	.	.	16aa-	.
.	.	.	16gg	.
.	.	.	16ff	.
.	.	.	16ee-	.
.	.	.	16dd	.
2.c	16r	4.r	2.ee-	.
.	16dd	.	.	.
.	16cc	.	.	.
.	16b-	.	.	.
.	16an	.	.	.
.	16g	.	.	.
.	16r	4.cc	.	4.aan
.	16g	.	.	.
.	16f	.	.	.
.	16e-	.	.	.
.	16d	.	.	.
.	16c	.	.	.
=111	=111	=111	=111	=111
4.B-	8d	8f	16dd	[2.bb-
.	.	.	16b-	.
.	8r	8r	16cc	.
.	.	.	16dd	.
.	8r	8r	16ee-	.
.	.	.	16ff	.
4.r	4.r	4.r	8gg	.
.	.	.	8ff	.
.	.	.	8gg	.
2.r	2.r	2.r	8cc	4.bb-]
.	.	.	16ee-	.
.	.	.	16dd	.
.	.	.	16ee-	.
.	.	.	16cc	.
.	.	.	8ff	[4.aa-
.	.	.	8ee-	.
.	.	.	8ff	.
=112	=112	=112	=112	=112
1.r	1.r	4.r	8b-	4.aa-]
.	.	.	16dd	.
.	.	.	16cc	.
.	.	.	16dd	.
.	.	.	16b-	.
.	.	8cc	[4.ee-	4.gg
.	.	8b-	.	.
.	.	8cc	.	.
.	.	8f	4.ee-]	2.aa-
.	.	16a-	.	.
.	.	16g	.	.
.	.	16a-	.	.
.	.	16f	.	.
.	.	8b-	4.dd	.
.	.	8a-	.	.
.	.	8b-	.	.
=113	=113	=113	=113	=113
1.r	4.r	8e-	16ee-	[4.gg
.	.	.	16ff	.
.	.	16g	16ee-	.
.	.	16f	16dd	.
.	.	16g	16ee-	.
.	.	16e-	16gg	.
.	8f	[4.a-	4.cc	16gg]
.	.	.	.	16bb-
.	8e-	.	.	16aa-
.	.	.	.	16gg
.	8f	.	.	16ff
.	.	.	.	16ee-
.	8B-	4.a-]	2.b-	16dd
.	.	.	.	16ee-
.	16d	.	.	16ff
.	16c	.	.	16ee-
.	16d	.	.	16ff
.	16B-	.	.	16dd
.	8e-	[4.g	.	16gg
.	.	.	.	16aa-
.	8d	.	.	16gg
.	.	.	.	16ff
.	8e-	.	.	16ee-
.	.	.	.	16dd
=114	=114	=114	=114	=114
4.r	2.A-	4.g]	2.cc	16cc
.	.	.	.	16dd
.	.	.	.	16ee-
.	.	.	.	16dd
.	.	.	.	16ee-
.	.	.	.	16cc
2.AA-	.	4f	.	16ff
.	.	.	.	16gg
.	.	.	.	16ff
.	.	.	.	16ee-
.	.	8e-	.	16dd
.	.	.	.	16cc
.	4.B-	16d	8f	16b-
.	.	16e-	.	16cc
.	.	16f	8r	16dd
.	.	16e-	.	16cc
.	.	16f	8r	16dd
.	.	16d	.	16b-
4.GG	8B-	[4.g	[4.b-	[4.ee-
.	8A-	.	.	.
.	8B-	.	.	.
=115	=115	=115	=115	=115
2.C	8E-	4.g]	4.b-]	2.ee-]
.	16G	.	.	.
.	16F	.	.	.
.	16G	.	.	.
.	16E-	.	.	.
.	8A-	4f	[4.a-	.
.	8G	.	.	.
.	8A-	8e-	.	.
4.BB-	16D	2.b-	4.a-]	4.ff
.	16BB-	.	.	.
.	16C	.	.	.
.	16D	.	.	.
.	16E-	.	.	.
.	16F	.	.	.
[4.E-	16G	.	4.g	4.ee-
.	16E-	.	.	.
.	16F	.	.	.
.	16G	.	.	.
.	16A-	.	.	.
.	16B-	.	.	.
=116	=116	=116	=116	=116
4.E-]	16c	4.a-	[2.ff	[2.aa-
.	16A-	.	.	.
.	16B-	.	.	.
.	16c	.	.	.
.	16d	.	.	.
.	16e-	.	.	.
4.D	16f	[4.b-	.	.
.	16g	.	.	.
.	16f	.	.	.
.	16e-	.	.	.
.	16d	.	.	.
.	16c	.	.	.
4E-	[4.B-	16b-]	8ff]	8aa-]
.	.	16d	.	.
.	.	16e-	8ee-	8gg
.	.	16f	.	.
8F	.	16g	[8dd	[8ff
.	.	16a-	.	.
4G	8B-]	4b-	8dd]	8ff]
.	[4e-	.	8ee-	8ee-
8A-	.	8a-	8cc	8ff
=117	=117	=117	=117	=117
4.B-	8e-]	4.g	4.b-	4.b-W
.	8G	.	.	.
.	8A-	.	.	.
4.BB-	4.B-	4.f	4.a-	4.ddT
2.EE-;	2.B-;	2.e-;	2.g;	2.ee-;
==	==	==	==	==
*-	*-	*-	*-	*-
